X: 24303
T: Lost Time
R: reel
M: 4/4
K: Bmixolydian
K: B
|:dB B/B/B cB B/B/B|dBef- f3e|dB B/B/B cB B/B/B|Acef g2fe|
dB B/B/B cB B/B/B|dBef- f3e|dbfd g3f|dB B/B/B BABc:|
|:dB B/B/B cBGF|GBcB- BcBF|DG G/G/G AGBG|G/G/G BG ABce|
dB B/B/B ABGB|B/B/B FB EdBG|Fbfd g3f|1 dB B/B/B BABc:|2 dB B/B/B Bcdf||
|:eB B/B/B ABfB|B/B/B AB gB B/B/B|ABaB B/B/B AB|bafd cdfg|
eB B/B/B ABfB|B/B/B AB gB B/B/B|ABaB B/B/B AB|bafd cdfg:|


